X:28
T:Miss Drummond of Perth
R:highland
C:Niel Gow (1727-1807), Scotland
H:Originally a strathspey, "Miss Sarah Drummond of Perth" strathspey#23
D:Tom Doherty
Z:id:hn-hf-28
M:C|
L:1/8
K:Amix
A2eA (3Bcd ef | g2dg (3efe (3ded | A2eA (3Bcd ef |1 gfgB BAAB :|2 gfgB BAA2 ||
|: a2ed (3Bcd ef | g2dg (3efe d2 |1 a2ed (3Bcd ef |
gfgB BAA2 :|2 afge fdef | gfgB BAAB ||

